icons/1_Primary/phpMyAdmin.svg

<svg width="1024" height="1024" viewBox="0 0 1024 1024" fill="none" xmlns="http://www.w3.org/2000/svg">
<g clip-path="url(#clip0_2_3129)">
<path d="M512 1024C794.77 1024 1024 794.77 1024 512C1024 229.23 794.77 0 512 0C229.23 0 0 229.23 0 512C0 794.77 229.23 1024 512 1024Z" fill="#728DBE"/>
<path d="M533.17 650.61L555.88 218.82C555.88 218.26 556.15 217.98 556.68 217.42L557.75 217.14C558.28 217.14 558.55 217.42 558.82 217.7L559.36 218.82L558.82 226.96L786.2 617.51L785.93 618.07L784.33 617.51L772.31 597.03C722.88 584.4 678.26 559.71 638.45 522.96L637.65 522.4V522.12H637.11L636.84 521.28L610.92 473.02L610.65 472.46L609.58 471.06V470.78L609.31 470.5C612.52 401.48 604.23 336.39 584.46 275.23H584.66L558.54 230.06L536.63 650.07H535.83V650.35L535.3 650.63H533.16L533.17 650.61ZM691.35 630.69L610.58 480.94C610.77 480.83 610.87 480.6 610.78 480.4L609.43 477.85C609.404 477.8 609.369 477.755 609.325 477.719C609.281 477.684 609.231 477.657 609.177 477.641C609.122 477.625 609.066 477.62 609.009 477.627C608.953 477.634 608.899 477.652 608.85 477.68L551.34 371.16C579.39 431.48 589.55 522.67 582.07 644.71L691.35 630.68V630.69ZM709.1 643.27C709.06 643.07 708.93 642.89 708.72 642.89H707.92C707.68 642.89 707.49 643.08 707.49 643.32C707.49 643.35 707.53 643.34 707.54 643.37L250.23 701.96H249.96C250.23 726.93 260.91 746.57 281.76 760.6C287.37 764.81 293.25 767.9 298.59 769.86C303.67 763.69 309.28 759.2 315.96 754.99H316.23C376.08 716.83 465.06 710.94 582.62 737.03L583.96 737.31C596.79 740.12 609.61 743.48 621.64 747.41C625.11 747.97 628.05 746.85 630.46 744.6C634.74 741.23 640.08 738.71 647.29 737.03V736.75C666.26 701.4 691.91 675.31 723.97 658.19C746.15 646.69 771.8 639.11 800.39 636.3C811.61 634.9 818.82 632.37 822.03 628.73L709.12 643.27H709.1ZM525.7 647.25L551.88 225.84C513.94 379.59 453.02 523.24 369.39 656.51L525.7 647.25ZM354.43 673.62H354.7L355.24 673.34H357.38L379.02 308.88L378.48 307.76L377.41 307.2L376.34 307.48L375.8 308.88L354.16 673.62H354.43ZM371 310.01L249.96 676.71L348.02 665.77L371 310.01ZM353.14 778.34C353.296 778.253 353.411 778.109 353.464 777.938C353.516 777.768 353.501 777.584 353.421 777.425C353.341 777.265 353.203 777.143 353.036 777.082C352.868 777.022 352.683 777.028 352.52 777.1C322.99 791.91 301.02 794.75 287.23 785.57C273.17 775.64 251.36 777.88 222.4 792.25C222.318 792.291 222.245 792.347 222.185 792.416C222.125 792.485 222.078 792.565 222.049 792.652C222.02 792.739 222.008 792.831 222.014 792.922C222.02 793.014 222.045 793.103 222.085 793.185C222.126 793.267 222.183 793.34 222.252 793.4C222.321 793.461 222.401 793.507 222.488 793.536C222.574 793.565 222.666 793.577 222.758 793.571C222.849 793.565 222.938 793.541 223.02 793.5C251.49 779.38 272.83 777.09 286.45 786.72C300.71 796.21 323.14 793.4 353.15 778.34H353.14ZM423.86 779.31C417.936 777.229 411.775 775.898 405.52 775.35C392.5 774.22 376.41 779.55 357.79 791.17C339.47 802.88 317.67 807.33 291.17 804.81C290.81 804.79 290.45 805.06 290.41 805.44C290.37 805.82 290.65 806.16 291.04 806.2C295.87 806.66 300.55 806.89 305.08 806.89C325.71 806.89 343.3 802.09 358.54 792.35C376.89 780.9 392.65 775.63 405.41 776.74C411.5 777.27 417.55 778.58 423.41 780.63C423.76 780.76 424.17 780.57 424.29 780.2C424.321 780.114 424.333 780.023 424.328 779.932C424.323 779.841 424.299 779.752 424.259 779.67C424.219 779.588 424.163 779.515 424.095 779.455C424.026 779.395 423.947 779.349 423.86 779.32V779.31ZM589.17 751.49C589.208 751.311 589.173 751.124 589.074 750.971C588.975 750.817 588.819 750.709 588.64 750.67C461.75 723.24 369.06 729.88 313.15 770.43C313.076 770.483 313.014 770.551 312.966 770.629C312.918 770.707 312.887 770.793 312.873 770.884C312.859 770.974 312.863 771.066 312.885 771.154C312.907 771.243 312.946 771.327 313 771.4C313.13 771.59 313.35 771.69 313.56 771.69C313.7 771.69 313.84 771.65 313.97 771.56C369.55 731.26 461.86 724.69 588.36 752.04C588.72 752.1 589.1 751.88 589.18 751.51L589.17 751.49ZM668.91 763.89C663 761.53 656.81 760.19 650.54 759.91C637.5 758.75 621.43 764.11 602.82 775.72C584.49 787.15 562.67 791.61 536.18 789.37C535.74 789.29 535.46 789.62 535.43 790C535.4 790.38 535.68 790.72 536.06 790.75C540.53 791.13 544.87 791.32 549.09 791.32C570.15 791.32 588.06 786.56 603.55 776.9C621.9 765.45 637.67 760.21 650.44 761.29C656.58 761.56 662.61 762.87 668.38 765.17C668.74 765.32 669.14 765.14 669.28 764.78C669.314 764.695 669.331 764.605 669.33 764.513C669.329 764.422 669.309 764.332 669.273 764.249C669.237 764.165 669.184 764.089 669.119 764.026C669.053 763.963 668.975 763.913 668.89 763.88L668.91 763.89ZM417.66 309.72C417.474 309.837 417.313 309.99 417.186 310.169C417.059 310.349 416.969 310.552 416.92 310.767C416.872 310.981 416.866 311.204 416.904 311.42C416.942 311.637 417.022 311.844 417.14 312.03C417.63 312.81 418.67 313.04 419.45 312.55C432.19 304.52 444.09 306.72 455.8 319.29C456.13 319.64 456.58 319.82 457.03 319.82C457.44 319.82 457.85 319.67 458.17 319.37C471.76 306.72 484.46 304.48 497 312.54C497.79 313.04 498.82 312.81 499.32 312.04C499.82 311.26 499.6 310.22 498.82 309.72C485.38 301.08 471.36 303.13 457.11 315.8C444.63 303.12 431.37 301.07 417.66 309.71V309.72ZM389.52 265.42C402.25 257.41 414.56 260.6 427.17 275.2C427.49 275.56 427.95 275.78 428.43 275.78C428.91 275.78 429.37 275.57 429.69 275.21C442.47 260.72 454.79 257.51 467.35 265.42C468.13 265.91 469.16 265.68 469.66 264.89C470.15 264.11 469.92 263.07 469.13 262.58C455.57 254.04 441.89 257.07 428.44 271.58C415.14 256.96 401.45 253.94 387.72 262.58C386.93 263.08 386.7 264.11 387.19 264.89C387.68 265.67 388.72 265.9 389.5 265.42H389.52Z" fill="white"/>
</g>
<defs>
<clipPath id="clip0_2_3129">
<rect width="1024" height="1024" fill="white"/>
</clipPath>
</defs>
</svg>

<svg xmlns="http://www.w3.org/2000/svg" width="1024" height="1024" fill="none">
   <g clip-path="url(#a)">
      <path fill="#728DBE" d="M512 1024c282.77 0 512-229.23 512-512S794.77 0 512 0 0 229.23 0 512s229.23 512 512 512Z"/>
      <path fill="#fff" d="m533.17 650.61 22.71-431.79c0-.56.27-.84.8-1.4l1.07-.28c.53 0 .8.28 1.07.56l.54 1.12-.54 8.14L786.2 617.51l-.27.56-1.6-.56-12.02-20.48c-49.43-12.63-94.05-37.32-133.86-74.07l-.8-.56v-.28h-.54l-.27-.84-25.92-48.26-.27-.56-1.07-1.4v-.28l-.27-.28c3.21-69.02-5.08-134.11-24.85-195.27h.2l-26.12-45.17-21.91 420.01h-.8v.28l-.53.28h-2.14l.01-.02Zm158.18-19.92-80.77-149.75c.19-.11.29-.34.2-.54l-1.35-2.55a.416.416 0 0 0-.58-.17l-57.51-106.52c28.05 60.32 38.21 151.51 30.73 273.55l109.28-14.03v.01Zm17.75 12.58c-.04-.2-.17-.38-.38-.38h-.8c-.24 0-.43.19-.43.43 0 .03.04.02.05.05l-457.31 58.59h-.27c.27 24.97 10.95 44.61 31.8 58.64 5.61 4.21 11.49 7.3 16.83 9.26 5.08-6.17 10.69-10.66 17.37-14.87h.27c59.85-38.16 148.83-44.05 266.39-17.96l1.34.28c12.83 2.81 25.65 6.17 37.68 10.1 3.47.56 6.41-.56 8.82-2.81 4.28-3.37 9.62-5.89 16.83-7.57v-.28c18.97-35.35 44.62-61.44 76.68-78.56 22.18-11.5 47.83-19.08 76.42-21.89 11.22-1.4 18.43-3.93 21.64-7.57l-112.91 14.54h-.02Zm-183.4 3.98 26.18-421.41c-37.94 153.75-98.86 297.4-182.49 430.67l156.31-9.26Zm-171.27 26.37h.27l.54-.28h2.14l21.64-364.46-.54-1.12-1.07-.56-1.07.28-.54 1.4-21.64 364.74h.27ZM371 310.01l-121.04 366.7 98.06-10.94L371 310.01Zm-17.86 468.33a.694.694 0 0 0-.62-1.24c-29.53 14.81-51.5 17.65-65.29 8.47-14.06-9.93-35.87-7.69-64.83 6.68a.697.697 0 0 0 .62 1.25c28.47-14.12 49.81-16.41 63.43-6.78 14.26 9.49 36.69 6.68 66.7-8.38h-.01Zm70.72.97a75.116 75.116 0 0 0-18.34-3.96c-13.02-1.13-29.11 4.2-47.73 15.82-18.32 11.71-40.12 16.16-66.62 13.64-.36-.02-.72.25-.76.63-.04.38.24.72.63.76 4.83.46 9.51.69 14.04.69 20.63 0 38.22-4.8 53.46-14.54 18.35-11.45 34.11-16.72 46.87-15.61 6.09.53 12.14 1.84 18 3.89.35.13.76-.06.88-.43a.679.679 0 0 0-.031-.53.691.691 0 0 0-.399-.35v-.01Zm165.31-27.82a.692.692 0 0 0-.53-.82c-126.89-27.43-219.58-20.79-275.49 19.76a.686.686 0 0 0-.265.724.694.694 0 0 0 .115.246c.13.19.35.29.56.29.14 0 .28-.04.41-.13 55.58-40.3 147.89-46.87 274.39-19.52.36.06.74-.16.82-.53l-.01-.02Zm79.74 12.4c-5.91-2.36-12.1-3.7-18.37-3.98-13.04-1.16-29.11 4.2-47.72 15.81-18.33 11.43-40.15 15.89-66.64 13.65-.44-.08-.72.25-.75.63-.03.38.25.72.63.75 4.47.38 8.81.57 13.03.57 21.06 0 38.97-4.76 54.46-14.42 18.35-11.45 34.12-16.69 46.89-15.61 6.14.27 12.17 1.58 17.94 3.88.36.15.76-.03.9-.39a.696.696 0 0 0-.007-.531.69.69 0 0 0-.383-.369l.02.01ZM417.66 309.72a1.676 1.676 0 0 0-.74 1.047 1.67 1.67 0 0 0 .22 1.263c.49.78 1.53 1.01 2.31.52 12.74-8.03 24.64-5.83 36.35 6.74.33.35.78.53 1.23.53.41 0 .82-.15 1.14-.45 13.59-12.65 26.29-14.89 38.83-6.83.79.5 1.82.27 2.32-.5.5-.78.28-1.82-.5-2.32-13.44-8.64-27.46-6.59-41.71 6.08-12.48-12.68-25.74-14.73-39.45-6.09v.01Zm-28.14-44.3c12.73-8.01 25.04-4.82 37.65 9.78.32.36.78.58 1.26.58s.94-.21 1.26-.57c12.78-14.49 25.1-17.7 37.66-9.79.78.49 1.81.26 2.31-.53.49-.78.26-1.82-.53-2.31-13.56-8.54-27.24-5.51-40.69 9-13.3-14.62-26.99-17.64-40.72-9-.79.5-1.02 1.53-.53 2.31a1.69 1.69 0 0 0 2.31.53h.02Z"/>
   </g>
   <defs>
      <clipPath id="a">
         <path fill="#fff" d="M0 0h1024v1024H0z"/>
      </clipPath>
   </defs>
</svg>
